X: 34
T:The Letterkenny Blacksmith
R:Reel
C:Ed Reavy
M:2/2
L:1/8
Z:Joe Reavy
N:Written to commemorate a legendary smithy with the strength of
N:"the Hair O'Brady," who could toss a stubborn six hundred pound
N:jackass clear across a stream. Neil Dougherty was the
N:first to tell Ed of this hulk of a man who handled horses as if they were
N:just a simple sack of meal.
K:G
DF \
|: G2 BG AGFD | GABG EA,A,F | G2 BG A2 (3B^cd | ed=cA FDEF |
| G2 BG AGFD | GABG EA,A,2 |G,A,B,D EFGA |1 (3BcB Ac BGGF :|2 (3BcB Ac BGGA ||
|: (3Bcd gd Bdgd | ^ceae ce a2 | B=cd gd Bdge | fdcA BGGA |
| (3Bcd gd Bdgd | ^ceae ce a2 | (3efg fa gbag |1 fdcA BGGA :|2fdfd cAFA ||
